lib/svg/rss.svg

<svg xmlns="http://www.w3.org/2000/svg" width="10" height="16" viewBox="0 0 10 16"><path d="M2 13H0v-2c1.11 0 2 .89 2 2zM0 3v1a9 9 0 0 1 9 9h1C10 7.48 5.52 3 0 3zm0 4v1c2.75 0 5 2.25 5 5h1c0-3.31-2.69-6-6-6z"/></svg>

<?xml version="1.0" encoding="UTF-8" standalone="no"?>
<svg width="10px" height="16px" viewBox="0 0 10 16" version="1.1" xmlns="http://www.w3.org/2000/svg" xmlns:xlink="http://www.w3.org/1999/xlink">
    <!-- Generator: Sketch 3.8.3 (29802) - http://www.bohemiancoding.com/sketch -->
    <title>rss</title>
    <desc>Created with Sketch.</desc>
    <defs></defs>
    <g id="Octicons" stroke="none" stroke-width="1" fill="none" fill-rule="evenodd">
        <g id="rss" fill="#000000">
            <path d="M2,13 L0,13 L0,11 C1.11,11 2,11.89 2,13 L2,13 Z M0,3 L0,4 C4.97,4 9,8.03 9,13 L10,13 C10,7.48 5.52,3 0,3 L0,3 Z M0,7 L0,8 C2.75,8 5,10.25 5,13 L6,13 C6,9.69 3.31,7 0,7 L0,7 Z" id="Shape"></path>
        </g>
    </g>
</svg>
